packages/katcn/src/icons/svg/layers.svg

<svg width="24" height="25" viewBox="0 0 24 25" fill="none" xmlns="http://www.w3.org/2000/svg">
<path d="M3.1 9.41201L10 12.512C10.6 12.812 11.3 12.912 12 12.912C12.7 12.912 13.3 12.812 14 12.512L20.9 9.41201C21.6 9.11201 22 8.41201 22 7.61201C22 6.81201 21.6 6.21201 20.9 5.81201L14 2.71201C12.7 2.11201 11.3 2.11201 10.1 2.71201L3.1 5.91201C2.4 6.21201 2 6.91201 2 7.61201C2 8.41201 2.4 9.11201 3.1 9.41201ZM10.9 4.51201C11.6 4.21201 12.5 4.21201 13.2 4.51201L20 7.61201L13.2 10.712C12.5 11.012 11.6 11.012 10.9 10.712L4.1 7.61201L10.9 4.51201Z" fill="black"/>
<path d="M20 12.212L13.1 15.312C12.4 15.612 11.5 15.612 10.8 15.312L3.99999 12.212C3.49999 12.012 2.89999 12.212 2.69999 12.712C2.49999 13.212 2.69999 13.812 3.19999 14.012L9.99999 17.212C10.6 17.512 11.3 17.612 12 17.612C12.7 17.612 13.3 17.512 14 17.212L20.9 14.112C21.4 13.912 21.6 13.312 21.4 12.812C21.1 12.212 20.5 12.012 20 12.212Z" fill="black"/>
<path d="M20 16.912L13.1 20.012C12.4 20.312 11.5 20.312 10.8 20.012L3.99999 16.912C3.49999 16.712 2.89999 16.912 2.69999 17.412C2.49999 17.912 2.69999 18.512 3.19999 18.712L9.99999 21.912C10.6 22.212 11.3 22.312 12 22.312C12.7 22.312 13.3 22.212 14 21.912L20.9 18.812C21.4 18.612 21.6 18.012 21.4 17.512C21.1 16.912 20.5 16.712 20 16.912Z" fill="black"/>
</svg>

<svg xmlns="http://www.w3.org/2000/svg" fill="none" viewBox="0 0 24 25"><path fill="#000" d="m3.1 9.412 6.9 3.1c.6.3 1.3.4 2 .4s1.3-.1 2-.4l6.9-3.1c.7-.3 1.1-1 1.1-1.8s-.4-1.4-1.1-1.8l-6.9-3.1c-1.3-.6-2.7-.6-3.9 0l-7 3.2c-.7.3-1.1 1-1.1 1.7 0 .8.4 1.5 1.1 1.8m7.8-4.9c.7-.3 1.6-.3 2.3 0l6.8 3.1-6.8 3.1c-.7.3-1.6.3-2.3 0l-6.8-3.1z"/><path fill="#000" d="m20 12.212-6.9 3.1c-.7.3-1.6.3-2.3 0l-6.8-3.1c-.5-.2-1.1 0-1.3.5s0 1.1.5 1.3l6.8 3.2c.6.3 1.3.4 2 .4s1.3-.1 2-.4l6.9-3.1c.5-.2.7-.8.5-1.3-.3-.6-.9-.8-1.4-.6"/><path fill="#000" d="m20 16.912-6.9 3.1c-.7.3-1.6.3-2.3 0l-6.8-3.1c-.5-.2-1.1 0-1.3.5s0 1.1.5 1.3l6.8 3.2c.6.3 1.3.4 2 .4s1.3-.1 2-.4l6.9-3.1c.5-.2.7-.8.5-1.3-.3-.6-.9-.8-1.4-.6"/></svg>
